src/assets/scam-sms.svg

<svg xmlns="http://www.w3.org/2000/svg" width="97" height="97" fill="none"><g clip-path="url(#a)"><path fill="#414652" d="M6.5 34.52a6 6 0 0 0-6 6V96.5l13.88-13.88h59.27a6 6 0 0 0 6-6v-36.1a6 6 0 0 0-6-6zm15.22 31.09c-3.1 0-5.61-2.51-5.61-5.61s2.51-5.61 5.61-5.61 5.61 2.51 5.61 5.61-2.51 5.61-5.61 5.61m18.35 0c-3.1 0-5.61-2.51-5.61-5.61s2.51-5.61 5.61-5.61 5.61 2.51 5.61 5.61-2.51 5.61-5.61 5.61m18.36 0c-3.1 0-5.61-2.51-5.61-5.61s2.51-5.61 5.61-5.61 5.61 2.51 5.61 5.61-2.51 5.61-5.61 5.61"/><path fill="#787D88" d="M37.4.5a6 6 0 0 0-6 6v44.98l11.41-11.41H90.5a6 6 0 0 0 6-6V6.5a6 6 0 0 0-6-6zm11.45 25.57c-2.55 0-4.61-2.07-4.61-4.61 0-2.55 2.07-4.61 4.61-4.61s4.61 2.07 4.61 4.61-2.07 4.61-4.61 4.61m15.1 0c-2.55 0-4.61-2.07-4.61-4.61 0-2.55 2.07-4.61 4.61-4.61s4.61 2.07 4.61 4.61-2.07 4.61-4.61 4.61m15.1 0c-2.55 0-4.61-2.07-4.61-4.61 0-2.55 2.07-4.61 4.61-4.61s4.61 2.07 4.61 4.61-2.07 4.61-4.61 4.61"/><path fill="#FF444F" d="M74.87 96.5c11.946 0 21.63-9.684 21.63-21.63s-9.684-21.63-21.63-21.63-21.63 9.684-21.63 21.63S62.924 96.5 74.87 96.5"/><path fill="#fff" d="M87.21 75.26c0-6.81-5.52-12.33-12.33-12.33s-12.33 5.52-12.33 12.33v5.4h4.47l-.62 6.17h3.47V84.9h1.54v1.93h2.7V84.9h1.54v1.93h2.7V84.9h1.54v1.93h3.47l-.62-6.17h4.47zM69.79 77.8c-2.04 0-3.7-1.66-3.7-3.7h7.4c0 2.04-1.66 3.7-3.7 3.7m2.72 3.24 2.36-3.48 2.36 3.48zm7.45-3.24c-2.04 0-3.7-1.66-3.7-3.7h7.4c0 2.04-1.66 3.7-3.7 3.7"/></g><defs><clipPath id="a"><path fill="#fff" d="M.5.5h96v96H.5z"/></clipPath></defs></svg>

<svg width="97" height="97" viewBox="0 0 97 97" fill="none" xmlns="http://www.w3.org/2000/svg">
<g clip-path="url(#clip0_1796_62278)">
<path d="M6.50001 34.52C3.1863 34.52 0.5 37.2063 0.5 40.52V96.5L14.38 82.62H73.65C76.9637 82.62 79.65 79.9337 79.65 76.62V40.52C79.65 37.2063 76.9637 34.52 73.65 34.52H6.50001ZM21.72 65.61C18.62 65.61 16.11 63.1 16.11 60C16.11 56.9 18.62 54.39 21.72 54.39C24.82 54.39 27.33 56.9 27.33 60C27.33 63.1 24.82 65.61 21.72 65.61ZM40.07 65.61C36.97 65.61 34.46 63.1 34.46 60C34.46 56.9 36.97 54.39 40.07 54.39C43.17 54.39 45.68 56.9 45.68 60C45.68 63.1 43.17 65.61 40.07 65.61ZM58.43 65.61C55.33 65.61 52.82 63.1 52.82 60C52.82 56.9 55.33 54.39 58.43 54.39C61.53 54.39 64.04 56.9 64.04 60C64.04 63.1 61.53 65.61 58.43 65.61Z" fill="#414652"/>
<path d="M37.4 0.5C34.0863 0.5 31.4 3.18629 31.4 6.5V51.48L42.81 40.07H90.5C93.8137 40.07 96.5 37.3837 96.5 34.07V6.50001C96.5 3.1863 93.8137 0.5 90.5 0.5H37.4ZM48.85 26.07C46.3 26.07 44.24 24 44.24 21.46C44.24 18.91 46.31 16.85 48.85 16.85C51.39 16.85 53.46 18.92 53.46 21.46C53.46 24 51.39 26.07 48.85 26.07ZM63.95 26.07C61.4 26.07 59.34 24 59.34 21.46C59.34 18.91 61.41 16.85 63.95 16.85C66.49 16.85 68.56 18.92 68.56 21.46C68.56 24 66.49 26.07 63.95 26.07ZM79.05 26.07C76.5 26.07 74.44 24 74.44 21.46C74.44 18.91 76.51 16.85 79.05 16.85C81.59 16.85 83.66 18.92 83.66 21.46C83.66 24 81.59 26.07 79.05 26.07Z" fill="#787D88"/>
<path d="M74.87 96.5C86.8159 96.5 96.5 86.8159 96.5 74.87C96.5 62.9241 86.8159 53.24 74.87 53.24C62.9241 53.24 53.24 62.9241 53.24 74.87C53.24 86.8159 62.9241 96.5 74.87 96.5Z" fill="#FF444F"/>
<path d="M87.21 75.26C87.21 68.45 81.69 62.93 74.88 62.93C68.07 62.93 62.55 68.45 62.55 75.26V80.66H67.02L66.4 86.83H69.87V84.9H71.41V86.83H74.11V84.9H75.65V86.83H78.35V84.9H79.89V86.83H83.36L82.74 80.66H87.21V75.26ZM69.79 77.8C67.75 77.8 66.09 76.14 66.09 74.1H73.49C73.49 76.14 71.83 77.8 69.79 77.8ZM72.51 81.04L74.87 77.56L77.23 81.04H72.51ZM79.96 77.8C77.92 77.8 76.26 76.14 76.26 74.1H83.66C83.66 76.14 82 77.8 79.96 77.8Z" fill="white"/>
</g>
<defs>
<clipPath id="clip0_1796_62278">
<rect width="96" height="96" fill="white" transform="translate(0.5 0.5)"/>
</clipPath>
</defs>
</svg>
